X: 29236
T: New House, The
R: jig
M: 6/8
K: Dmajor
dcd AFD|F2D FGA|B3 Bef|ged cAf|
d3 AFD|F2D FGA|B3 ged|1 cBc dAc:|2 cBc d2e||
|:f2d dcA|BGB AFA|dfb afd|ABg ecA|
d2a fdc|BGB AFA|dfb afd|1 ABc d2e:|2 ABc dAc||
|:dcd f3|aba fed|B3 Bef|ged cAf|
d3 f3|aba fed|B3 ged|cBc dAc:|

